assets/prototypes/bbc_news_frontpage/04_News_Frontpage_2014/SVG/close.svg

<svg viewBox="0 0 32 32" xmlns="http://www.w3.org/2000/svg"><path d="m32 3.535-3.536-3.535-12.464 12.465-12.465-12.465-3.535 3.535 12.465 12.465-12.465 12.465 3.536 3.535 12.464-12.465 12.464 12.465 3.536-3.535-12.465-12.465z" fill="#fff"/></svg>

<svg viewBox="0 0 32 32" xmlns="http://www.w3.org/2000/svg"><path d="M32 3.535L28.464 0 16 12.465 3.535 0 0 3.535 12.465 16 0 28.465 3.536 32 16 19.535 28.464 32 32 28.465 19.535 16z" fill="#fff"/></svg>
